assets/symbols/mulberry/flag_japan.svg

<svg height="850.394" viewBox="0 0 850.394 850.394" width="850.394" xmlns="http://www.w3.org/2000/svg"><path d="m162.61 114.42v670.96h-39.49l-1.12-670.61c5.8 2.59 12.62 4.08 19.92 4.08 7.62 0 14.73-1.63 20.69-4.43z" fill="#c8c8c8"/><path d="m748.18 140.34v379.83h-579.62l-3.49-379.83zm-191.93 195.79c0-50.88-41.24-92.13-92.12-92.13s-92.13 41.25-92.13 92.13 41.25 92.12 92.13 92.12 92.12-41.24 92.12-92.12z" fill="#fff"/><path d="m464.13 244c50.88 0 92.12 41.25 92.12 92.13s-41.24 92.12-92.12 92.12-92.13-41.24-92.13-92.12 41.25-92.13 92.13-92.13z" fill="#ed1e29"/><path d="m162.61 114.42c-5.96 2.8-13.07 4.43-20.69 4.43-7.3 0-14.12-1.49-19.92-4.08-10.99-4.89-18.33-13.72-18.33-23.8 0-15.4 17.13-27.88 38.25-27.88 21.13 0 38.26 12.48 38.26 27.88 0 9.84-7 18.49-17.57 23.45z" fill="#c8c8c8"/><g fill="none"><g stroke="#231f20"><path d="m165.07 140.34h583.11v379.83h-579.62m-46.56-405.4c-10.99-4.89-18.33-13.72-18.33-23.8 0-15.4 17.13-27.88 38.25-27.88 21.13 0 38.26 12.48 38.26 27.88 0 9.84-7 18.49-17.57 23.45-5.96 2.8-13.07 4.43-20.69 4.43-7.3 0-14.12-1.49-19.92-4.08z" stroke-width="21"/><path d="m122 114v.77l1.12 670.61m39.49-672.78v672.78" stroke-width="21"/><path d="m556.25 336.13c0 50.88-41.24 92.12-92.12 92.12s-92.13-41.24-92.13-92.12 41.25-92.13 92.13-92.13 92.12 41.25 92.12 92.13z" stroke-width="14"/></g><path d="m0 0h850.394v850.394h-850.394z"/></g></svg>

<svg xmlns="http://www.w3.org/2000/svg" width="850.394" height="850.394" viewBox="0 0 850.394 850.394" overflow="visible"><path d="M162.61 114.42v670.96h-39.49L122 114.77c5.8 2.59 12.62 4.08 19.92 4.08 7.62 0 14.73-1.63 20.69-4.43z" fill="#c8c8c8"/><path d="M748.18 140.34v379.83H168.56l-3.49-379.83h583.11zM556.25 336.13c0-50.88-41.24-92.13-92.12-92.13S372 285.25 372 336.13s41.25 92.12 92.13 92.12 92.12-41.24 92.12-92.12z" fill="#fff"/><path d="M464.13 244c50.88 0 92.12 41.25 92.12 92.13s-41.24 92.12-92.12 92.12S372 387.01 372 336.13 413.25 244 464.13 244z" fill="#ed1e29"/><path d="M162.61 114.42c-5.96 2.8-13.07 4.43-20.69 4.43-7.3 0-14.12-1.49-19.92-4.08-10.99-4.89-18.33-13.72-18.33-23.8 0-15.4 17.13-27.88 38.25-27.88 21.13 0 38.26 12.48 38.26 27.88 0 9.84-7 18.49-17.57 23.45z" fill="#c8c8c8"/><g fill="none" stroke="#231f20"><path stroke-width="21" d="M165.07 140.34h583.11v379.83H168.56M122 114.77c-10.99-4.89-18.33-13.72-18.33-23.8 0-15.4 17.13-27.88 38.25-27.88 21.13 0 38.26 12.48 38.26 27.88 0 9.84-7 18.49-17.57 23.45-5.96 2.8-13.07 4.43-20.69 4.43-7.3 0-14.12-1.49-19.92-4.08z"/><path stroke-width="21" d="M122 114v.77l1.12 670.61M162.61 112.6V785.38"/><path d="M556.25 336.13c0 50.88-41.24 92.12-92.12 92.12S372 387.01 372 336.13 413.25 244 464.13 244s92.12 41.25 92.12 92.13z" stroke-width="14"/></g><path fill="none" d="M0 0h850.394v850.394H0z"/></svg>
